X:115
T: ES KAM EIN REICHER VOGEL
N: K2165
O: Europa, Mitteleuropa, Deutschland, Oberdiebach am Rhein
R: Kinder - Lied, Reigen, Tanz - Spiel
M: 3/4
L: 1/16
K: G
d4 | d2d2B4d4 | A4d4z2
d2 | d2d2B4d4 | c4B4z2
c2 | c2c2A4c4 | c2B2A4z2
d2 | d2d2B4e4 | d4z6
d2 | d2d2B4d4 | c2B2A4z2
d2 | d2d2B4d4 | c2B2A2
c2B2d2 | c3BA4z2
d2 | d2d2B4d4 | c2A2G4z4

@@@ Tune index: 7452
